assets/svgs/law-grey/LawGrey15.svg

<svg xmlns="http://www.w3.org/2000/svg" data-name="Layer 1" viewBox="0 0 64 64"><path d="M50.977 19.364H38.842c0-.036.011-.07.011-.108v-3.878a2.11 2.11 0 00-2.108-2.107h-9.489a2.111 2.111 0 00-2.108 2.107v3.879c0 .037.009.071.011.108H13.023a2.111 2.111 0 00-2.108 2.108v27.149a2.111 2.111 0 002.108 2.107h37.954a2.111 2.111 0 002.108-2.107V21.473a2.111 2.111 0 00-2.108-2.109zm-23.829-.108v-3.878a.107.107 0 01.108-.107h9.488a.107.107 0 01.108.107v3.879a.107.107 0 01-.108.108h-9.488a.107.107 0 01-.109-.108zm.108 2.108h23.721c.013 0 .022.01.033.014-.939 1.775-5.834 10.2-14.928 12.224v-1.186a2.111 2.111 0 00-2.108-2.108h-3.948a2.111 2.111 0 00-2.108 2.108V33.6C18.824 31.577 13.93 23.153 12.99 21.378c.011 0 .021-.014.033-.014zm6.826 11.052v5.817a.109.109 0 01-.108.108h-3.948a.109.109 0 01-.108-.108v-5.817a.108.108 0 01.108-.108h3.947a.108.108 0 01.109.108zM50.977 48.73H13.023a.107.107 0 01-.108-.107V25.1c2.462 3.571 7.358 9.024 15 10.541v2.589a2.111 2.111 0 002.108 2.108h3.947a2.111 2.111 0 002.108-2.108v-2.585c7.645-1.517 12.541-6.97 15-10.541v23.518a.107.107 0 01-.101.108z"/></svg>

<svg id="Layer_1" data-name="Layer 1" xmlns="http://www.w3.org/2000/svg" viewBox="0 0 64 64"><title>Artboard 15</title><path d="M50.977,19.364H38.842c0-.036.011-.07.011-.108V15.378a2.11,2.11,0,0,0-2.108-2.107H27.256a2.111,2.111,0,0,0-2.108,2.107v3.879c0,.037.009.071.011.108H13.023a2.111,2.111,0,0,0-2.108,2.108V48.622a2.111,2.111,0,0,0,2.108,2.107H50.977a2.111,2.111,0,0,0,2.108-2.107V21.473A2.111,2.111,0,0,0,50.977,19.364Zm-23.829-.108V15.378a.107.107,0,0,1,.108-.107h9.488a.107.107,0,0,1,.108.107v3.879a.107.107,0,0,1-.108.108H27.256A.107.107,0,0,1,27.147,19.257Zm.108,2.108H50.977c.013,0,.022.01.033.014-.939,1.775-5.834,10.2-14.928,12.224V32.416a2.111,2.111,0,0,0-2.108-2.108H30.026a2.111,2.111,0,0,0-2.108,2.108V33.6C18.824,31.577,13.93,23.153,12.99,21.378c.011,0,.021-.014.033-.014Zm6.826,11.052v5.817a.109.109,0,0,1-.108.108H30.026a.109.109,0,0,1-.108-.108V32.416a.108.108,0,0,1,.108-.108h3.947A.108.108,0,0,1,34.082,32.416ZM50.977,48.73H13.023a.107.107,0,0,1-.108-.107V25.1c2.462,3.571,7.358,9.024,15,10.541v2.589a2.111,2.111,0,0,0,2.108,2.108h3.947a2.111,2.111,0,0,0,2.108-2.108V35.645c7.645-1.517,12.541-6.97,15-10.541V48.622A.107.107,0,0,1,50.977,48.73Z"/></svg>
